img/icons/htl_pc-icon.svg

<svg width="54" height="54" viewBox="0 0 54 54" fill="none" xmlns="http://www.w3.org/2000/svg">
<g clip-path="url(#clip0)">
<path d="M25.6751 28.1828H8.55859V25.6308C8.55859 23.7298 9.83481 22.0387 11.6618 21.5151L14.5494 20.691V20.4624C13.4829 19.6588 12.8377 18.3947 12.8377 17.0571V15.3454C12.8377 14.1499 13.3434 12.9994 14.2259 12.19C15.1064 11.3831 16.2945 10.9781 17.4976 11.0826C19.6835 11.2727 21.396 13.223 21.396 15.5226V17.0571C21.396 18.3947 20.7508 19.6588 19.6843 20.4624V20.691L22.5711 21.5151C24.3989 22.0378 25.6751 23.7298 25.6751 25.6308V28.1828Z" fill="url(#paint0_linear)"/>
<path d="M44.5032 35.0296H27.3867V21.3364H44.5032V35.0296Z" fill="url(#paint1_linear)"/>
<path d="M48.7821 12.778H47.9263V0.796387H5.13496V12.778H4.27913C1.91976 12.778 0 14.6977 0 17.0571V44.4435C0 46.8029 1.91976 48.7227 4.27913 48.7227H15.4049V52.146H11.9816V53.8576H41.0797V52.146H37.6564V48.7227H48.7821C51.1415 48.7227 53.0612 46.8029 53.0612 44.4435V17.0571C53.0612 14.6977 51.1415 12.778 48.7821 12.778ZM6.84661 9.35465H46.2146V36.7411H6.84661V9.35465ZM46.2146 2.50804V7.643H6.84661V2.50804H46.2146ZM4.27913 14.4896H5.13496V38.4527H47.9263V14.4896H48.7821C50.1975 14.4896 51.3496 15.6417 51.3496 17.0571V40.1644H1.71165V17.0571C1.71165 15.6417 2.86376 14.4896 4.27913 14.4896ZM35.9447 52.146H17.1165V48.7227H35.9447V52.146ZM48.7821 47.011H4.27913C2.86376 47.011 1.71165 45.8589 1.71165 44.4435V41.876H51.3496V44.4435C51.3496 45.8589 50.1975 47.011 48.7821 47.011Z" fill="url(#paint2_linear)"/>
<path d="M5.13477 43.5879H6.84642V45.2995H5.13477V43.5879Z" fill="url(#paint3_linear)"/>
<path d="M8.55859 43.5879H10.2702V45.2995H8.55859V43.5879Z" fill="url(#paint4_linear)"/>
<path d="M11.9824 43.5879H13.6941V45.2995H11.9824V43.5879Z" fill="url(#paint5_linear)"/>
<path d="M8.55859 4.21948H10.2702V5.93113H8.55859V4.21948Z" fill="url(#paint6_linear)"/>
<path d="M11.9824 4.21948H13.6941V5.93113H11.9824V4.21948Z" fill="url(#paint7_linear)"/>
<path d="M15.4043 4.21948H17.1159V5.93113H15.4043V4.21948Z" fill="url(#paint8_linear)"/>
<path d="M8.55859 29.8945H25.6751V31.6062H8.55859V29.8945Z" fill="url(#paint9_linear)"/>
<path d="M8.55859 33.3176H25.6751V35.0293H8.55859V33.3176Z" fill="url(#paint10_linear)"/>
<path d="M27.3867 11.0662H44.5032V12.7778H27.3867V11.0662Z" fill="url(#paint11_linear)"/>
<path d="M27.3867 14.4895H44.5032V16.2012H27.3867V14.4895Z" fill="url(#paint12_linear)"/>
<path d="M27.3867 17.9128H39.3683V19.6245H27.3867V17.9128Z" fill="url(#paint13_linear)"/>
</g>
<defs>
<linearGradient id="paint0_linear" x1="25.6751" y1="19.6246" x2="8.55859" y2="19.6246" gradientUnits="userSpaceOnUse">
<stop stop-color="#4CBA85"/>
<stop offset="1" stop-color="#2569AC"/>
</linearGradient>
<linearGradient id="paint1_linear" x1="44.5032" y1="28.183" x2="27.3867" y2="28.183" gradientUnits="userSpaceOnUse">
<stop stop-color="#4CBA85"/>
<stop offset="1" stop-color="#2569AC"/>
</linearGradient>
<linearGradient id="paint2_linear" x1="53.0612" y1="27.327" x2="3.6452e-08" y2="27.327" gradientUnits="userSpaceOnUse">
<stop stop-color="#4CBA85"/>
<stop offset="1" stop-color="#2569AC"/>
</linearGradient>
<linearGradient id="paint3_linear" x1="6.84642" y1="44.4437" x2="5.13477" y2="44.4437" gradientUnits="userSpaceOnUse">
<stop stop-color="#4CBA85"/>
<stop offset="1" stop-color="#2569AC"/>
</linearGradient>
<linearGradient id="paint4_linear" x1="10.2702" y1="44.4437" x2="8.55859" y2="44.4437" gradientUnits="userSpaceOnUse">
<stop stop-color="#4CBA85"/>
<stop offset="1" stop-color="#2569AC"/>
</linearGradient>
<linearGradient id="paint5_linear" x1="13.6941" y1="44.4437" x2="11.9824" y2="44.4437" gradientUnits="userSpaceOnUse">
<stop stop-color="#4CBA85"/>
<stop offset="1" stop-color="#2569AC"/>
</linearGradient>
<linearGradient id="paint6_linear" x1="10.2702" y1="5.07531" x2="8.55859" y2="5.07531" gradientUnits="userSpaceOnUse">
<stop stop-color="#4CBA85"/>
<stop offset="1" stop-color="#2569AC"/>
</linearGradient>
<linearGradient id="paint7_linear" x1="13.6941" y1="5.07531" x2="11.9824" y2="5.07531" gradientUnits="userSpaceOnUse">
<stop stop-color="#4CBA85"/>
<stop offset="1" stop-color="#2569AC"/>
</linearGradient>
<linearGradient id="paint8_linear" x1="17.1159" y1="5.07531" x2="15.4043" y2="5.07531" gradientUnits="userSpaceOnUse">
<stop stop-color="#4CBA85"/>
<stop offset="1" stop-color="#2569AC"/>
</linearGradient>
<linearGradient id="paint9_linear" x1="25.6751" y1="30.7504" x2="8.55859" y2="30.7504" gradientUnits="userSpaceOnUse">
<stop stop-color="#4CBA85"/>
<stop offset="1" stop-color="#2569AC"/>
</linearGradient>
<linearGradient id="paint10_linear" x1="25.6751" y1="34.1735" x2="8.55859" y2="34.1735" gradientUnits="userSpaceOnUse">
<stop stop-color="#4CBA85"/>
<stop offset="1" stop-color="#2569AC"/>
</linearGradient>
<linearGradient id="paint11_linear" x1="44.5032" y1="11.922" x2="27.3867" y2="11.922" gradientUnits="userSpaceOnUse">
<stop stop-color="#4CBA85"/>
<stop offset="1" stop-color="#2569AC"/>
</linearGradient>
<linearGradient id="paint12_linear" x1="44.5032" y1="15.3453" x2="27.3867" y2="15.3453" gradientUnits="userSpaceOnUse">
<stop stop-color="#4CBA85"/>
<stop offset="1" stop-color="#2569AC"/>
</linearGradient>
<linearGradient id="paint13_linear" x1="39.3683" y1="18.7687" x2="27.3867" y2="18.7687" gradientUnits="userSpaceOnUse">
<stop stop-color="#4CBA85"/>
<stop offset="1" stop-color="#2569AC"/>
</linearGradient>
<clipPath id="clip0">
<rect width="53.0612" height="53.0612" fill="white" transform="translate(0 0.796387)"/>
</clipPath>
</defs>
</svg>

<svg width="54" height="54" fill="none" xmlns="http://www.w3.org/2000/svg"><g clip-path="url(#clip0)"><path d="M25.675 28.183H8.56V25.63a4.3 4.3 0 013.103-4.116l2.887-.824v-.229a4.283 4.283 0 01-1.711-3.405v-1.712a4.29 4.29 0 011.388-3.155 4.295 4.295 0 013.272-1.107c2.185.19 3.898 2.14 3.898 4.44v1.534a4.283 4.283 0 01-1.712 3.405v.229l2.887.824a4.299 4.299 0 013.104 4.116v2.552z" fill="url(#paint0_linear)"/><path d="M44.503 35.03H27.387V21.336h17.116V35.03z" fill="url(#paint1_linear)"/><path d="M48.782 12.778h-.856V.796H5.135v11.982h-.856A4.284 4.284 0 000 17.058v27.386a4.285 4.285 0 004.28 4.279h11.125v3.423h-3.423v1.712H41.08v-1.712h-3.424v-3.423h11.126c2.36 0 4.28-1.92 4.28-4.28V17.058c0-2.36-1.92-4.279-4.28-4.279zM6.847 9.355h39.368V36.74H6.847V9.355zm39.368-6.847v5.135H6.847V2.508h39.368zM4.279 14.49h.856v23.963h42.791V14.49h.856a2.57 2.57 0 012.568 2.567v23.107H1.712V17.057a2.57 2.57 0 012.567-2.567zm31.666 37.656H17.116v-3.423h18.829v3.423zm12.837-5.135H4.28a2.57 2.57 0 01-2.567-2.568v-2.567H51.35v2.568a2.57 2.57 0 01-2.568 2.567z" fill="url(#paint2_linear)"/><path d="M5.135 43.588h1.711V45.3H5.135v-1.712z" fill="url(#paint3_linear)"/><path d="M8.559 43.588h1.711V45.3H8.56v-1.712z" fill="url(#paint4_linear)"/><path d="M11.982 43.588h1.712V45.3h-1.712v-1.712z" fill="url(#paint5_linear)"/><path d="M8.559 4.22h1.711v1.71H8.56V4.22z" fill="url(#paint6_linear)"/><path d="M11.982 4.22h1.712v1.71h-1.712V4.22z" fill="url(#paint7_linear)"/><path d="M15.404 4.22h1.712v1.71h-1.712V4.22z" fill="url(#paint8_linear)"/><path d="M8.559 29.895h17.116v1.711H8.56v-1.712z" fill="url(#paint9_linear)"/><path d="M8.559 33.318h17.116v1.711H8.56v-1.711z" fill="url(#paint10_linear)"/><path d="M27.387 11.066h17.116v1.712H27.387v-1.712z" fill="url(#paint11_linear)"/><path d="M27.387 14.49h17.116v1.71H27.387v-1.71z" fill="url(#paint12_linear)"/><path d="M27.387 17.913h11.981v1.712H27.387v-1.712z" fill="url(#paint13_linear)"/></g><defs><linearGradient id="paint0_linear" x1="25.675" y1="19.625" x2="8.559" y2="19.625" gradientUnits="userSpaceOnUse"><stop stop-color="#4CBA85"/><stop offset="1" stop-color="#2569AC"/></linearGradient><linearGradient id="paint1_linear" x1="44.503" y1="28.183" x2="27.387" y2="28.183" gradientUnits="userSpaceOnUse"><stop stop-color="#4CBA85"/><stop offset="1" stop-color="#2569AC"/></linearGradient><linearGradient id="paint2_linear" x1="53.061" y1="27.327" x2="0" y2="27.327" gradientUnits="userSpaceOnUse"><stop stop-color="#4CBA85"/><stop offset="1" stop-color="#2569AC"/></linearGradient><linearGradient id="paint3_linear" x1="6.846" y1="44.444" x2="5.135" y2="44.444" gradientUnits="userSpaceOnUse"><stop stop-color="#4CBA85"/><stop offset="1" stop-color="#2569AC"/></linearGradient><linearGradient id="paint4_linear" x1="10.27" y1="44.444" x2="8.559" y2="44.444" gradientUnits="userSpaceOnUse"><stop stop-color="#4CBA85"/><stop offset="1" stop-color="#2569AC"/></linearGradient><linearGradient id="paint5_linear" x1="13.694" y1="44.444" x2="11.982" y2="44.444" gradientUnits="userSpaceOnUse"><stop stop-color="#4CBA85"/><stop offset="1" stop-color="#2569AC"/></linearGradient><linearGradient id="paint6_linear" x1="10.27" y1="5.075" x2="8.559" y2="5.075" gradientUnits="userSpaceOnUse"><stop stop-color="#4CBA85"/><stop offset="1" stop-color="#2569AC"/></linearGradient><linearGradient id="paint7_linear" x1="13.694" y1="5.075" x2="11.982" y2="5.075" gradientUnits="userSpaceOnUse"><stop stop-color="#4CBA85"/><stop offset="1" stop-color="#2569AC"/></linearGradient><linearGradient id="paint8_linear" x1="17.116" y1="5.075" x2="15.404" y2="5.075" gradientUnits="userSpaceOnUse"><stop stop-color="#4CBA85"/><stop offset="1" stop-color="#2569AC"/></linearGradient><linearGradient id="paint9_linear" x1="25.675" y1="30.75" x2="8.559" y2="30.75" gradientUnits="userSpaceOnUse"><stop stop-color="#4CBA85"/><stop offset="1" stop-color="#2569AC"/></linearGradient><linearGradient id="paint10_linear" x1="25.675" y1="34.173" x2="8.559" y2="34.173" gradientUnits="userSpaceOnUse"><stop stop-color="#4CBA85"/><stop offset="1" stop-color="#2569AC"/></linearGradient><linearGradient id="paint11_linear" x1="44.503" y1="11.922" x2="27.387" y2="11.922" gradientUnits="userSpaceOnUse"><stop stop-color="#4CBA85"/><stop offset="1" stop-color="#2569AC"/></linearGradient><linearGradient id="paint12_linear" x1="44.503" y1="15.345" x2="27.387" y2="15.345" gradientUnits="userSpaceOnUse"><stop stop-color="#4CBA85"/><stop offset="1" stop-color="#2569AC"/></linearGradient><linearGradient id="paint13_linear" x1="39.368" y1="18.769" x2="27.387" y2="18.769" gradientUnits="userSpaceOnUse"><stop stop-color="#4CBA85"/><stop offset="1" stop-color="#2569AC"/></linearGradient><clipPath id="clip0"><path fill="#fff" transform="translate(0 .796)" d="M0 0h53.061v53.061H0z"/></clipPath></defs></svg>
